config/06_Vlog LUTs_For Skin Tone.cube
TITLE "Generated by Resolve"
LUT_3D_SIZE 9
0 0 0
0.0682994 0.0061799 0.0324102
0.19472 0.00108339 0.0303349
0.329091 0 0.023621
0.454139 0 0.0196384
0.565911 0 0.0196994
0.661204 0 0.0248722
0.742412 0.00552377 0.0347753
0.819059 0.0177462 0.0469978
0 0.109682 0
0.109895 0.109895 0
0.222507 0.100832 0.0581216
0.35816 0.0953841 0.0526741
0.485115 0.0933089 0.0505989
0.599283 0.0957656 0.0530556
0.697307 0.1037 0.0609903
0.781415 0.116472 0.0737621
0.860868 0.131518 0.0888075
0 0.225406 0
0.10721 0.227726 0
0.228687 0.228687 0
0.38613 0.208759 0.0769818
0.517372 0.208423 0.0828565
0.634287 0.213626 0.0880598
0.734707 0.223941 0.0983749
0.820645 0.23856 0.112993
0.901274 0.25478 0.129213
0 0.35436 0
0.102022 0.359533 0
0.226139 0.363119 0
0.363638 0.363638 0
0.51606 0.355474 0.029984
0.662501 0.342107 0.116274
0.763195 0.352712 0.126864
0.848951 0.367147 0.141314
0.929488 0.383246 0.157412
0 0.492607 0
0.10135 0.499138 0
0.226154 0.503426 0
0.363714 0.50399 0
0.503883 0.503883 0
0.644038 0.503655 0
0.786236 0.48455 0.14168
0.872999 0.497841 0.165362
0.953414 0.513832 0.181353
0 0.632547 0
0.102037 0.638941 0
0.226856 0.643244 0
0.36466 0.644053 0
0.504952 0.644083 0
0.644144 0.644144 0
0.774517 0.646174 0
0.892989 0.63682 0.112825
0.971389 0.642298 0.199313
0 0.769635 0
0.11078 0.776028 0.000717174
0.235203 0.779934 0.00463874
0.372244 0.77998 0.00468452
0.511391 0.778851 0.00355535
0.649012 0.777356 0.00204471
0.777478 0.777478 0.00218204
0.894743 0.779797 0.00448615
1 0.776867 0.0678721
0.0111238 0.901381 0.0111238
0.126253 0.906462 0.0162051
0.248997 0.908675 0.0184176
0.384024 0.906722 0.0164645
0.520989 0.903395 0.0131533
0.656382 0.899672 0.00941482
0.782635 0.897581 0.00732433
0.897734 0.897734 0.00749218
1 0.898528 0.00828565
0.0258488 1 0.0258488
0.138766 1 0.0287175
0.259266 1 0.0287022
0.392096 1 0.0245365
0.52697 1 0.0191348
0.660502 1 0.0135348
0.785214 1 0.00991836
0.899168 1 0.00892653
1 1 0.00892653
0 0 0.144076
0.0673838 0.0102998 0.105272
0.198169 0.00453193 0.0993668
0.332586 0 0.0926833
0.457725 0 0.0888075
0.569665 0 0.0890211
0.665156 0 0.0944228
0.74667 0.00976577 0.104601
0.82359 0.0222782 0.117113
0 0.108614 0.142138
0.110048 0.110048 0.110048
0.226322 0.104646 0.127504
0.362219 0.0994583 0.122316
0.489464 0.0976577 0.120531
0.603922 0.10042 0.123278
0.702235 0.108629 0.131502
0.786633 0.121706 0.144579
0.866316 0.136965 0.159823
0 0.226108 0.105592
0.108202 0.228717 0.108202
0.229953 0.229953 0.109438
0.392569 0.212665 0.152682
0.522667 0.213733 0.15375
0.639796 0.219135 0.159152
0.740337 0.229572 0.169589
0.826337 0.244266 0.184268
0.906966 0.260471 0.200488
0 0.356023 0.0985275
0.103944 0.36144 0.103944
0.228214 0.365209 0.107698
0.365835 0.365835 0.108324
0.547723 0.343114 0.177081
0.668177 0.347784 0.187533
0.76878 0.358282 0.198032
0.854597 0.372793 0.212528
0.93518 0.388937 0.228687
0 0.49482 0.0970321
0.103578 0.501366 0.103578
0.228321 0.505592 0.10782
0.365835 0.506111 0.108339
0.506065 0.506065 0.108293
0.659281 0.498009 0.139071
0.792676 0.488838 0.221942
0.878645 0.503487 0.236591
0.958984 0.519402 0.252491
0 0.634699 0.0977951
0.104234 0.641154 0.104234
0.229068 0.645472 0.108553
0.366857 0.646265 0.109361
0.507103 0.646235 0.109331
0.646204 0.646204 0.109285
0.77705 0.647608 0.11339
0.897475 0.634089 0.247227
0.976379 0.647303 0.269886
0 0.771832 0.106584
0.112902 0.778149 0.112902
0.237217 0.781949 0.116701
0.374105 0.781842 0.116594
0.513039 0.780514 0.115267
0.650446 0.77879 0.113542
0.778698 0.778698 0.113436
0.89572 0.780774 0.115526
0.995819 0.773877 0.216464
0.0129091 0.903166 0.122972
0.12784 0.908034 0.12784
0.25034 0.910033 0.129824
0.385153 0.907851 0.127642
0.521889 0.904311 0.124102
0.657069 0.900359 0.12015
0.783093 0.898039 0.117845
0.898024 0.898024 0.11783
1 0.898695 0.118502
0.0268864 1 0.13695
0.13959 1 0.13959
0.259876 1 0.139361
0.392493 1 0.134997
0.527199 1 0.129427
0.660624 1 0.123705
0.78526 1 0.119997
0.899153 1 0.118959
1 1 0.118959
0 0 0.376425
0.108995 0 0.229511
0.200702 0.00704967 0.180438
0.335164 0.000427253 0.173816
0.460426 0 0.170062
0.572549 0 0.170459
0.668284 0.00271611 0.176104
0.750088 0.0131838 0.186572
0.827298 0.0259861 0.199374
0 0.103182 0.344717
0.0833448 0.111864 0.283742
0.229282 0.107607 0.209018
0.365454 0.102693 0.204105
0.492973 0.101183 0.202609
0.607736 0.104234 0.205646
0.706355 0.112734 0.21416
0.791012 0.126085 0.227497
0.870878 0.141527 0.242954
0 0.220768 0.363165
0.0787823 0.232242 0.284871
0.230564 0.230564 0.230564
0.396796 0.216876 0.235447
0.527138 0.218189 0.236759
0.644419 0.223758 0.242329
0.745068 0.234302 0.252872
0.831113 0.249027 0.267597
0.911727 0.265217 0.283787
0 0.355337 0.270604
0.105165 0.362661 0.225681
0.229587 0.366567 0.229587
0.367285 0.367285 0.230289
0.555108 0.346441 0.264729
0.672892 0.352514 0.270802
0.773434 0.362951 0.281239
0.859327 0.377523 0.295827
0.939941 0.393713 0.312001
0 0.496284 0.219013
0.105028 0.502815 0.225544
0.229709 0.506981 0.229709
0.367224 0.5075 0.230243
0.507515 0.507515 0.230259
0.69366 0.484352 0.29073
0.797436 0.493599 0.305241
0.883345 0.508186 0.319844
0.963592 0.52401 0.335653
0 0.636118 0.21973
0.105699 0.642603 0.226215
0.230549 0.646937 0.230549
0.368307 0.6477 0.231312
0.508476 0.647593 0.231205
0.647456 0.647456 0.231067
0.789303 0.641672 0.260166
0.901808 0.637156 0.338293
0.980377 0.651301 0.352438
0 0.773251 0.228519
0.114229 0.779477 0.234745
0.238422 0.783154 0.238422
0.375143 0.782879 0.238148
0.513878 0.781353 0.236622
0.651057 0.7794 0.234668
0.779065 0.779065 0.234333
0.896193 0.78056 0.238132
0.992035 0.771634 0.355703
0.0138857 0.904143 0.244465
0.128588 0.908797 0.249104
0.250874 0.910552 0.250874
0.385458 0.908141 0.248463
0.521965 0.904372 0.244694
0.656916 0.900206 0.240528
0.782742 0.897688 0.23801
0.89752 0.89752 0.237842
1 0.89807 0.238376
0.0271153 1 0.257679
0.13959 1 0.260105
0.259648 1 0.259648
0.392081 1 0.2551
0.52665 1 0.249378
0.659953 1 0.243565
0.784512 1 0.23978
0.89839 1 0.238697
1 1 0.238697
0 0 0.599756
0.107027 0 0.364538
0.212604 0.00180056 0.319677
0.336156 0.00141909 0.276219
0.461555 0 0.272587
0.573861 0 0.273182
0.669886 0.0043183 0.279103
0.751965 0.0150759 0.289876
0.82948 0.0281529 0.302953
0 0.0948196 0.582681
0.0322576 0.11136 0.553002
0.227359 0.106844 0.364355
0.367147 0.104387 0.30721
0.494972 0.103182 0.306004
0.610025 0.106523 0.309346
0.708934 0.115328 0.318151
0.793835 0.128908 0.331731
0.873884 0.144518 0.347356
0 0.214832 0.575708
0.0397803 0.232761 0.520989
0.18822 0.235523 0.436698
0.399466 0.219547 0.339529
0.530022 0.221088 0.341054
0.647456 0.22681 0.346777
0.748196 0.23743 0.357412
0.834257 0.252171 0.372152
0.914809 0.268299 0.388281
0 0.347616 0.569574
0.0195773 0.3691 0.552193
0.184176 0.3729 0.440589
0.367559 0.367559 0.367559
0.558236 0.349569 0.369268
0.675959 0.355566 0.375265
0.776501 0.366018 0.385718
0.862455 0.380652 0.400351
0.943084 0.396857 0.416556
0 0.488319 0.548424
0.0730144 0.505516 0.4336
0.229877 0.507134 0.366857
0.367453 0.507729 0.367453
0.50779 0.50779 0.367514
0.699748 0.486015 0.399069
0.800549 0.496712 0.409766
0.886381 0.511238 0.424292
0.966522 0.52694 0.439994
0 0.636362 0.357
0.105974 0.642878 0.363485
0.230808 0.647211 0.367803
0.368521 0.647929 0.368521
0.508614 0.647745 0.368338
0.647471 0.647471 0.368063
0.81738 0.627894 0.425589
0.904311 0.639673 0.442222
0.982651 0.653574 0.456123
0 0.773449 0.365698
0.114321 0.779568 0.371832
0.238376 0.783108 0.375372
0.374929 0.782666 0.374929
0.513451 0.780911 0.373175
0.650401 0.778729 0.370993
0.77818 0.77818 0.370443
0.901198 0.774166 0.39649
0.992569 0.772442 0.466026
0.0135958 0.903853 0.381155
0.128069 0.908278 0.38558
0.250126 0.909804 0.387121
0.384482 0.907179 0.384482
0.520775 0.903181 0.380499
0.655497 0.898787 0.376104
0.78114 0.896086 0.373404
0.895781 0.895781 0.373083
1 0.896086 0.374945
0.0260624 1 0.393622
0.138308 1 0.395819
0.258152 1 0.395148
0.390433 1 0.390433
0.524849 1 0.384588
0.658061 1 0.378668
0.782559 1 0.374823
0.896406 1 0.373724
1 1 0.373724
0 0 0.777096
0.103731 0 0.506371
0.223102 0 0.500359
0.336065 0.00129702 0.393973
0.461601 0 0.390402
0.574136 0 0.391211
0.670451 0.00486763 0.397421
0.752819 0.0159152 0.408484
0.830625 0.0292973 0.421851
0 0.0895857 0.762951
0.00720226 0.107408 0.780774
0.225772 0.105257 0.503044
0.363882 0.103563 0.459983
0.495918 0.104128 0.42472
0.611276 0.107759 0.428351
0.71046 0.116854 0.437446
0.795575 0.130648 0.45124
0.875776 0.146426 0.467018
0 0.210513 0.75555
0.00376898 0.230961 0.772641
0.110964 0.242115 0.730739
0.365927 0.228946 0.506203
0.531838 0.222889 0.460639
0.649409 0.228748 0.466484
0.750195 0.239429 0.477165
0.836255 0.25417 0.49192
0.916732 0.270237 0.507973
0 0.344305 0.748837
0 0.367254 0.76994
0.127398 0.378195 0.69572
0.313771 0.375235 0.590738
0.56022 0.351553 0.489021
0.677836 0.357458 0.494926
0.778454 0.367971 0.505425
0.864454 0.38265 0.520119
0.945098 0.398856 0.536324
0 0.484443 0.747921
0 0.507912 0.771374
0.103395 0.521279 0.738628
0.309621 0.515984 0.596323
0.507836 0.507836 0.507836
0.701747 0.488014 0.518822
0.802502 0.498665 0.529473
0.888258 0.5131 0.543923
0.968261 0.528679 0.559503
0 0.623896 0.749432
0.00941482 0.647028 0.747692
0.183734 0.652445 0.595117
0.36849 0.647898 0.508766
0.508476 0.647608 0.508476
0.647211 0.647211 0.50808
0.821408 0.628092 0.548394
0.905608 0.64097 0.561273
0.983719 0.654643 0.57496
0 0.769284 0.584497
0.114122 0.7794 0.511971
0.238056 0.782788 0.515312
0.374411 0.782147 0.514672
0.512703 0.780163 0.512703
0.649424 0.777768 0.510292
0.776989 0.776989 0.509514
0.915587 0.76231 0.568994
0.992874 0.772747 0.584115
0.0130007 0.903243 0.520836
0.127245 0.907439 0.525017
0.249073 0.908751 0.526329
0.3832 0.905898 0.523476
0.519265 0.901686 0.519265
0.653788 0.897078 0.514656
0.779248 0.894209 0.511788
0.893751 0.893751 0.51133
0.998123 0.892546 0.530709
0.0247044 1 0.53254
0.136721 1 0.534508
0.256367 1 0.533639
0.388479 1 0.528756
0.522789 1 0.522789
0.655924 1 0.516793
0.780362 1 0.512901
0.894209 1 0.511788
1 1 0.511818
0 0 0.946471
0.0785077 0 0.729824
0.221042 0 0.63743
0.351675 0 0.626169
0.460761 0 0.521447
0.573541 0 0.522515
0.67013 0.00454719 0.529015
0.752789 0.0158999 0.540352
0.8309 0.029572 0.554025
0 0.0851759 0.932555
0.00299077 0.103212 0.950576
0.222477 0.10399 0.644907
0.358236 0.100725 0.637629
0.49601 0.104204 0.556786
0.611643 0.108141 0.560632
0.711116 0.117494 0.569986
0.796414 0.131487 0.583978
0.876753 0.147387 0.599878
0 0.206973 0.926024
0 0.227756 0.946807
0.0763867 0.242542 0.961578
0.365743 0.228748 0.645151
0.520119 0.225895 0.617227
0.650401 0.22974 0.599374
0.751232 0.240467 0.610101
0.837263 0.255192 0.624826
0.917662 0.271153 0.640787
0 0.341665 0.920195
0 0.364813 0.943343
0.0766766 0.381201 0.955993
0.21648 0.386908 0.902434
0.508034 0.367758 0.647166
0.678767 0.358373 0.627741
0.779446 0.368963 0.638331
0.865492 0.383688 0.65304
0.94612 0.399893 0.669245
0 0.482048 0.919509
0 0.50544 0.942901
0.0751965 0.521721 0.957092
0.238651 0.5243 0.863539
0.444877 0.517205 0.741268
0.70277 0.489021 0.651743
0.803464 0.499626 0.662333
0.889128 0.51397 0.676677
0.968994 0.529412 0.692119
0 0.6215 0.921035
0 0.64506 0.944595
0.0760204 0.661692 0.961212
0.210666 0.667872 0.914961
0.441062 0.657328 0.748669
0.646967 0.646967 0.646967
0.821897 0.628565 0.680766
0.905867 0.641215 0.693431
0.983749 0.654673 0.706874
0 0.75758 0.931502
0.00683604 0.780484 0.954406
0.0991684 0.794781 0.940322
0.315358 0.788876 0.753964
0.511955 0.779431 0.651087
0.648447 0.776791 0.648447
0.775799 0.775799 0.647456
0.916487 0.760784 0.704051
0.992157 0.77203 0.715282
0 0.891096 0.856672
0.0941634 0.906645 0.758083
0.24799 0.907698 0.664469
0.381933 0.904616 0.661326
0.517769 0.900191 0.656901
0.652094 0.895369 0.652094
0.777401 0.892348 0.649058
0.891783 0.891783 0.648493
0.984512 0.887999 0.703136
0.0212253 1 0.686824
0.135149 1 0.672053
0.254612 1 0.671
0.386572 1 0.66598
0.520775 1 0.659907
0.653834 1 0.653834
0.778241 1 0.649912
0.892088 1 0.648798
1 1 0.648859
0 0 1
0.052903 0 0.957763
0.219791 0 0.764523
0.351522 0 0.759274
0.472267 0 0.699443
0.573083 0 0.65362
0.669978 0.0043946 0.66041
0.752926 0.0160372 0.672038
0.831327 0.0299992 0.686015
0 0.0820325 1
7.62951e-05 0.100282 1
0.1823 0.105867 0.86569
0.357992 0.100481 0.765728
0.495628 0.0981765 0.758984
0.612192 0.108675 0.692714
0.711894 0.118273 0.702312
0.79736 0.132433 0.716487
0.877806 0.14844 0.732494
0 0.20473 1
0 0.225818 1
0.0747234 0.240879 1
0.363943 0.229679 0.778698
0.506386 0.229114 0.773846
0.651469 0.230808 0.732052
0.752316 0.241566 0.742748
0.8383 0.256229 0.757412
0.918639 0.272129 0.773327
0 0.340276 1
0 0.363546 1
0.073518 0.380179 1
0.174899 0.390814 1
0.508858 0.368582 0.776333
0.665049 0.363699 0.767773
0.780529 0.370047 0.770962
0.866575 0.384771 0.785687
0.947204 0.400977 0.801892
0 0.480812 1
0 0.504112 1
0.0728466 0.520562 1
0.176608 0.530892 1
0.33225 0.532845 1
0.64831 0.509178 0.776654
0.804456 0.500618 0.794888
0.889998 0.514855 0.809125
0.969726 0.530144 0.824414
0 0.620295 1
0 0.643854 1
0.0747692 0.660426 1
0.177203 0.670619 1
0.359518 0.668315 1
0.577218 0.657816 0.879728
0.822354 0.629023 0.812787
0.906096 0.641459 0.825208
0.983749 0.654673 0.838437
0 0.756191 1
0.00531014 0.778958 1
0.0831006 0.794354 1
0.182589 0.803128 1
0.329656 0.803525 1
0.573556 0.787411 0.888487
0.775311 0.775311 0.775311
0.915969 0.760266 0.835081
0.99144 0.771313 0.846113
0 0.883711 1
0.0198978 0.904463 1
0.0955062 0.917678 1
0.210468 0.922316 1
0.449577 0.908095 0.896834
0.651102 0.894392 0.779446
0.776272 0.891234 0.776272
0.890547 0.890547 0.775601
0.982315 0.886641 0.837003
0 1 1
0.0642252 1 1
0.207645 1 0.906386
0.385382 1 0.79321
0.519524 1 0.786984
0.652506 1 0.78085
0.776898 1 0.776898
0.890761 1 0.775799
1 1 0.775921
0 0 1
0.0349279 0 1
0.219547 0 0.879225
0.351446 0 0.874144
0.486519 0 0.86894
0.578958 0 0.786664
0.670588 0.00500496 0.783536
0.753826 0.0169375 0.795453
0.832517 0.0312047 0.80972
0 0.0802472 1
0 0.0987564 1
0.142138 0.107866 1
0.358816 0.101305 0.881514
0.496712 0.0989395 0.879133
0.62327 0.10425 0.844999
0.71339 0.119783 0.826337
0.799023 0.134096 0.84065
0.879545 0.150195 0.856748
0 0.203891 1
0 0.225269 1
0.0744335 0.240589 1
0.314351 0.2365 0.995438
0.508186 0.23093 0.890608
0.647929 0.231312 0.889021
0.75407 0.24332 0.867018
0.839979 0.257908 0.881605
0.920317 0.273823 0.89752
0 0.34023 1
0 0.363607 1
0.0736095 0.38027 1
0.17496 0.39089 1
0.507713 0.370703 0.897948
0.649866 0.370474 0.893156
0.782284 0.371801 0.895232
0.868345 0.386542 0.909972
0.948928 0.402701 0.926131
0 0.480842 1
0 0.504097 1
0.0729076 0.520623 1
0.174258 0.531258 1
0.285206 0.53933 1
0.650126 0.510994 0.893416
0.794354 0.507393 0.908232
0.891493 0.51635 0.933135
0.971069 0.531487 0.948272
0 0.620386 1
0 0.643931 1
0.0747845 0.660441 1
0.175753 0.67068 1
0.288716 0.677623 1
0.452705 0.676188 1
0.777951 0.649607 0.892897
0.90692 0.642267 0.948547
0.984344 0.655268 0.961547
0 0.756054 1
0.00502022 0.778668 1
0.0826276 0.793881 1
0.181888 0.802426 1
0.291615 0.807523 1
0.483482 0.799893 1
0.70016 0.786801 1
0.91603 0.760342 0.957656
0.991318 0.771191 0.968521
0 0.882918 1
0.0188754 0.903456 1
0.0942702 0.916442 1
0.191302 0.922759 1
0.297246 0.925841 1
0.45008 0.921355 1
0.69604 0.902571 1
0.890257 0.890257 0.890257
0.981857 0.886168 0.95906
0 1 1
0.0298009 1 1
0.103166 1 1
0.198459 1 1
0.323323 1 1
0.577981 1 1
0.776516 1 0.891478
0.890394 1 0.890394
1 1 0.890578
0 0 1
0.0230869 0 1
0.217945 0 0.9944
0.351812 0 0.984253
0.487129 0 0.979294
0.612802 0 0.95906
0.671839 0.00614939 0.90074
0.755291 0.0184024 0.912886
0.834272 0.0329595 0.927428
0 0.0791791 1
0 0.0979629 1
0.114336 0.109117 1
0.360113 0.102617 0.992554
0.498314 0.100526 0.990478
0.636423 0.0995193 0.989471
0.721355 0.119463 0.949767
0.80119 0.136263 0.95877
0.881773 0.152422 0.974929
0 0.2038 1
0 0.225467 1
0.074876 0.241016 1
0.264271 0.242954 1
0.510399 0.233127 1
0.649882 0.233478 1
0.767681 0.241154 0.994629
0.842084 0.260014 0.99968
0.922499 0.27599 1
0 0.340871 1
0 0.364324 1
0.0743572 0.381003 1
0.175647 0.391577 1
0.449699 0.379965 1
0.652079 0.372686 1
0.783139 0.37525 1
0.870558 0.388769 1
0.95111 0.404883 1
0 0.481498 1
0 0.504768 1
0.0736248 0.521355 1
0.175006 0.532006 1
0.285924 0.540063 1
0.649058 0.513603 1
0.782895 0.515419 1
0.893431 0.518273 1
0.972808 0.533227 1
0 0.621134 1
0 0.644633 1
0.0754101 0.661082 1
0.176272 0.671214 1
0.286275 0.678355 1
0.400549 0.68368 1
0.7794 0.651057 1
0.902998 0.64828 1
0.985336 0.65626 1
0 0.756542 1
0.00534066 0.778988 1
0.0827192 0.793988 1
0.181765 0.802289 1
0.289693 0.80737 1
0.404852 0.810071 1
0.565759 0.806012 1
0.89189 0.776944 1
0.991623 0.771496 1
0 0.882704 1
0.0184482 0.903014 1
0.0935988 0.915785 1
0.190417 0.921874 1
0.296162 0.924758 1
0.407919 0.925628 1
0.599145 0.915557 1
0.811002 0.901778 1
0.981842 0.886168 1
0 0.999695 1
0.0286564 1 1
0.101884 1 1
0.197055 1 1
0.301549 1 1
0.410697 1 1
0.561761 1 1
0.806592 1 1
1 1 1
