config/06_Vlog LUTs_For Skin Tone.cube
TITLE "Generated by Resolve"
LUT_3D_SIZE 5
0 0 0
0.19472 0.00108339 0.0303349
0.454139 0 0.0196384
0.661204 0 0.0248722
0.819059 0.0177462 0.0469978
0 0.225406 0
0.228687 0.228687 0
0.517372 0.208423 0.0828565
0.734707 0.223941 0.0983749
0.901274 0.25478 0.129213
0 0.492607 0
0.226154 0.503426 0
0.503883 0.503883 0
0.786236 0.48455 0.14168
0.953414 0.513832 0.181353
0 0.769635 0
0.235203 0.779934 0.00463874
0.511391 0.778851 0.00355535
0.777478 0.777478 0.00218204
1 0.776867 0.0678721
0.0258488 1 0.0258488
0.259266 1 0.0287022
0.52697 1 0.0191348
0.785214 1 0.00991836
1 1 0.00892653
0 0 0.376425
0.200702 0.00704967 0.180438
0.460426 0 0.170062
0.668284 0.00271611 0.176104
0.827298 0.0259861 0.199374
0 0.220768 0.363165
0.230564 0.230564 0.230564
0.527138 0.218189 0.236759
0.745068 0.234302 0.252872
0.911727 0.265217 0.283787
0 0.496284 0.219013
0.229709 0.506981 0.229709
0.507515 0.507515 0.230259
0.797436 0.493599 0.305241
0.963592 0.52401 0.335653
0 0.773251 0.228519
0.238422 0.783154 0.238422
0.513878 0.781353 0.236622
0.779065 0.779065 0.234333
0.992035 0.771634 0.355703
0.0271153 1 0.257679
0.259648 1 0.259648
0.52665 1 0.249378
0.784512 1 0.23978
1 1 0.238697
0 0 0.777096
0.223102 0 0.500359
0.461601 0 0.390402
0.670451 0.00486763 0.397421
0.830625 0.0292973 0.421851
0 0.210513 0.75555
0.110964 0.242115 0.730739
0.531838 0.222889 0.460639
0.750195 0.239429 0.477165
0.916732 0.270237 0.507973
0 0.484443 0.747921
0.103395 0.521279 0.738628
0.507836 0.507836 0.507836
0.802502 0.498665 0.529473
0.968261 0.528679 0.559503
0 0.769284 0.584497
0.238056 0.782788 0.515312
0.512703 0.780163 0.512703
0.776989 0.776989 0.509514
0.992874 0.772747 0.584115
0.0247044 1 0.53254
0.256367 1 0.533639
0.522789 1 0.522789
0.780362 1 0.512901
1 1 0.511818
0 0 1
0.219791 0 0.764523
0.472267 0 0.699443
0.669978 0.0043946 0.66041
0.831327 0.0299992 0.686015
0 0.20473 1
0.0747234 0.240879 1
0.506386 0.229114 0.773846
0.752316 0.241566 0.742748
0.918639 0.272129 0.773327
0 0.480812 1
0.0728466 0.520562 1
0.33225 0.532845 1
0.804456 0.500618 0.794888
0.969726 0.530144 0.824414
0 0.756191 1
0.0831006 0.794354 1
0.329656 0.803525 1
0.775311 0.775311 0.775311
0.99144 0.771313 0.846113
0 1 1
0.207645 1 0.906386
0.519524 1 0.786984
0.776898 1 0.776898
1 1 0.775921
0 0 1
0.217945 0 0.9944
0.487129 0 0.979294
0.671839 0.00614939 0.90074
0.834272 0.0329595 0.927428
0 0.2038 1
0.074876 0.241016 1
0.510399 0.233127 1
0.767681 0.241154 0.994629
0.922499 0.27599 1
0 0.481498 1
0.0736248 0.521355 1
0.285924 0.540063 1
0.782895 0.515419 1
0.972808 0.533227 1
0 0.756542 1
0.0827192 0.793988 1
0.289693 0.80737 1
0.565759 0.806012 1
0.991623 0.771496 1
0 0.999695 1
0.101884 1 1
0.301549 1 1
0.561761 1 1
1 1 1
