config/06_Vlog LUTs_For Skin Tone.cube
TITLE "Generated by Resolve"
LUT_3D_SIZE 33
0 0 0
0.0147402 0.00204471 0.00732433
0.0209506 0.00584421 0.0223087
0.0413214 0.0065919 0.0297856
0.0682994 0.0061799 0.0324102
0.0973526 0.00535592 0.0336919
0.128664 0.0041352 0.0333715
0.161501 0.00267033 0.0319219
0.19472 0.00108339 0.0303349
0.228382 0 0.0286259
0.262196 0 0.0268864
0.295857 0 0.0251926
0.329091 0 0.023621
0.361685 0 0.0222324
0.393332 0 0.0211185
0.424063 0 0.0202792
0.454139 0 0.0196384
0.483436 0 0.0192416
0.511833 0 0.0191043
0.539452 0 0.0192264
0.565911 0 0.0196994
0.591333 0 0.0204929
0.615686 0 0.0216068
0.638987 0 0.0230716
0.661204 0 0.0248722
0.68249 0 0.0269932
0.70309 9.15541e-05 0.0293584
0.722927 0.00273136 0.0319829
0.742412 0.00552377 0.0347753
0.761608 0.00846876 0.0377203
0.780682 0.0115206 0.0407721
0.799969 0.0145571 0.0438239
0.819059 0.0177462 0.0469978
0 0.0271305 0
0.0272068 0.0272068 0
0.0319219 0.0306706 0.020325
0.0472725 0.0317235 0.0352026
0.0707713 0.0314641 0.0430915
0.103105 0.0300908 0.0418708
0.135714 0.0286717 0.0404517
0.168551 0.0271916 0.0389715
0.201785 0.0256046 0.0373999
0.235462 0.0239261 0.0357061
0.269306 0.0222019 0.0339971
0.302998 0.0205386 0.0323339
0.336294 0.019028 0.030808
0.368933 0.0177005 0.0294804
0.400641 0.0166476 0.0284428
0.431449 0.0158846 0.0276646
0.461616 0.0153201 0.0271153
0.491005 0.0150149 0.0267948
0.519509 0.0149844 0.0267796
0.547234 0.0152132 0.0270085
0.573816 0.0158083 0.0275883
0.599359 0.0167391 0.0285191
0.623865 0.0179904 0.0297856
0.647303 0.0196078 0.0314031
0.669703 0.0215763 0.0333715
0.691157 0.0238651 0.0356603
0.711925 0.0264134 0.0381933
0.73196 0.029221 0.0410163
0.751629 0.0321965 0.0439765
0.770993 0.0353246 0.0471046
0.790234 0.0385443 0.0503395
0.80972 0.0417639 0.0535592
0.828992 0.0451209 0.0569162
0 0.054612 0
0.0272221 0.0546578 0
0.0546578 0.0546578 0
0.0547799 0.0568246 0.0372473
0.0779736 0.0561532 0.0487373
0.109743 0.0548104 0.0485084
0.142367 0.0534066 0.0471046
0.175235 0.051957 0.045655
0.208499 0.0504158 0.0441138
0.242222 0.0487831 0.0424811
0.276127 0.0471351 0.0408179
0.309895 0.0455329 0.0392309
0.343267 0.0440833 0.0377813
0.375982 0.0428473 0.0365454
0.407797 0.0419013 0.035584
0.438712 0.0412451 0.0349279
0.469001 0.0408026 0.0344854
0.498512 0.0406043 0.0343023
0.527138 0.0407263 0.0344091
0.555016 0.0411078 0.0347906
0.581765 0.0418402 0.0355383
0.607477 0.0429389 0.0366369
0.632166 0.0443885 0.0380713
0.655772 0.0461738 0.0398718
0.67834 0.0483253 0.0420233
0.699977 0.0507973 0.04448
0.720943 0.0535134 0.0472114
0.741146 0.0565042 0.0502022
0.760983 0.0596628 0.0533455
0.780545 0.0629587 0.0566567
0.799969 0.0663767 0.0600595
0.819623 0.0697795 0.0634775
0.839078 0.0733196 0.0670024
0 0.0820783 0
0.0271611 0.0821241 0
0.054612 0.0821241 0
0.0821393 0.0821393 0
0.102327 0.0817426 0.0165713
0.116533 0.0796216 0.0552987
0.149203 0.0782788 0.0539406
0.182132 0.0768902 0.0525673
0.215488 0.0754101 0.0510872
0.249287 0.0738689 0.0495308
0.283268 0.0722972 0.0479744
0.317143 0.0708019 0.046479
0.350622 0.0694743 0.0451362
0.383474 0.0683452 0.0440223
0.415412 0.0675212 0.0431983
0.446464 0.0670024 0.0426795
0.47689 0.0667124 0.0423896
0.506569 0.0666972 0.042359
0.535378 0.0669718 0.042649
0.563424 0.0675364 0.0431983
0.590356 0.068452 0.0441291
0.616236 0.0697337 0.0454108
0.641108 0.0713512 0.0470283
0.664912 0.0733196 0.0489967
0.687648 0.0756542 0.0513313
0.709468 0.078294 0.0539712
0.730617 0.0812085 0.0568704
0.750988 0.0843824 0.0600443
0.771023 0.0877089 0.063386
0.790753 0.0912032 0.066865
0.810361 0.094789 0.0704662
0.830213 0.0983749 0.074052
0.849836 0.102098 0.0777752
0 0.109682 0
0.0269322 0.109773 0
0.0544442 0.109819 0
0.0820172 0.10988 0
0.109895 0.109895 0
0.138064 0.109712 0.000793469
0.15671 0.103838 0.057145
0.189059 0.10219 0.0594797
0.222507 0.100832 0.0581216
0.256428 0.099382 0.056672
0.290532 0.0979477 0.0552377
0.324544 0.0965896 0.0538643
0.35816 0.0953841 0.0526741
0.391165 0.0944228 0.0517128
0.42327 0.0937667 0.0510567
0.45449 0.093431 0.0507057
0.485115 0.0933089 0.0505989
0.514961 0.0934768 0.0507515
0.543954 0.0939345 0.0512245
0.572183 0.094667 0.051957
0.599283 0.0957656 0.0530556
0.625345 0.0972305 0.0545205
0.650401 0.0990311 0.0563211
0.674372 0.101183 0.0584726
0.697307 0.1037 0.0609903
0.71931 0.106523 0.0638132
0.740627 0.109606 0.0668956
0.761196 0.112963 0.0702525
0.781415 0.116472 0.0737621
0.801328 0.12015 0.0774395
0.821103 0.123903 0.0811933
0.841093 0.127657 0.084947
0.860868 0.131518 0.0888075
0 0.137636 0
0.0264439 0.137804 0
0.0540169 0.137942 0
0.0816815 0.138079 0
0.109667 0.138186 0
0.138201 0.138201 0
0.167514 0.138033 0
0.196658 0.131884 0.0396277
0.229496 0.126848 0.065095
0.263554 0.125551 0.063798
0.297826 0.124269 0.0625162
0.331991 0.123079 0.061326
0.365789 0.122057 0.0603189
0.398978 0.121279 0.0595254
0.431266 0.120806 0.0590524
0.462669 0.120638 0.0588846
0.493462 0.120699 0.0589456
0.523491 0.121035 0.0592813
0.552666 0.121675 0.0599374
0.581079 0.122591 0.060853
0.608362 0.123888 0.0621347
0.634607 0.125521 0.0637675
0.659846 0.127504 0.0657511
0.684001 0.129839 0.0680858
0.707118 0.13254 0.0707866
0.72929 0.135546 0.0737926
0.75079 0.138796 0.0770581
0.771511 0.142321 0.0805829
0.791882 0.145998 0.0842451
0.811933 0.149798 0.0880446
0.831846 0.153689 0.0919356
0.851957 0.157549 0.0958114
0.871855 0.161532 0.0997787
0 0.166155 0
0.0255589 0.1664 0
0.053254 0.166644 0
0.0810254 0.166918 0
0.109148 0.167163 0
0.137804 0.1673 0
0.167285 0.167285 0
0.197742 0.167086 0
0.231296 0.162814 0.0203861
0.270024 0.153368 0.0664988
0.305013 0.151461 0.0697032
0.339361 0.150454 0.0686961
0.373327 0.149615 0.0678569
0.406699 0.149004 0.0672465
0.439155 0.148714 0.0669566
0.470756 0.14873 0.0669718
0.501732 0.148974 0.067216
0.531929 0.149493 0.0677348
0.561288 0.150317 0.0685588
0.589883 0.151415 0.0696574
0.61735 0.15288 0.0711223
0.643778 0.154711 0.0729534
0.6692 0.156863 0.0751049
0.693523 0.15938 0.0776226
0.716793 0.162234 0.0804761
0.739132 0.165393 0.0836347
0.760754 0.16878 0.0870222
0.781613 0.172427 0.0906691
0.80209 0.176211 0.0944533
0.822263 0.180117 0.0983749
0.842252 0.184115 0.102358
0.862455 0.188067 0.10631
0.882429 0.192111 0.110353
0 0.195361 0
0.0242466 0.195758 0
0.052079 0.196139 0
0.0800183 0.196567 0
0.108309 0.196979 0
0.137148 0.197299 0
0.166796 0.197467 0
0.197436 0.197436 0
0.229053 0.197208 0
0.26331 0.195056 0.00646983
0.307225 0.184222 0.0546273
0.34638 0.178805 0.0757153
0.380545 0.178149 0.0750591
0.414084 0.177722 0.0746471
0.446738 0.1776 0.0745251
0.478508 0.177798 0.0747234
0.509651 0.178225 0.0751507
0.540047 0.178927 0.0758526
0.569589 0.179934 0.0768597
0.598352 0.181216 0.0781415
0.626001 0.182849 0.0797742
0.652583 0.184833 0.0817426
0.678141 0.187137 0.084062
0.702602 0.189776 0.0867018
0.725994 0.192752 0.0896773
0.74844 0.196017 0.0929427
0.770169 0.199512 0.096437
0.791119 0.203265 0.100175
0.811688 0.207126 0.104036
0.831907 0.211109 0.108019
0.851972 0.215152 0.112078
0.872236 0.21915 0.116075
0.892241 0.223239 0.120165
0 0.225406 0
0.0226291 0.225971 0
0.0506447 0.226535 0
0.0787518 0.227146 0
0.10721 0.227726 0
0.136233 0.228229 0
0.166064 0.22858 0
0.196887 0.228733 0
0.228687 0.228687 0
0.261479 0.228428 0
0.295521 0.227695 0
0.341024 0.218006 0.0388342
0.38613 0.208759 0.0769818
0.421256 0.20737 0.0818036
0.454078 0.207446 0.0818799
0.486046 0.207813 0.0822614
0.517372 0.208423 0.0828565
0.547921 0.209293 0.0837262
0.577615 0.210452 0.0848859
0.606516 0.211872 0.086305
0.634287 0.213626 0.0880598
0.66099 0.215717 0.0901656
0.686656 0.218143 0.0925765
0.711223 0.220874 0.0953078
0.734707 0.223941 0.0983749
0.757229 0.227283 0.101717
0.779019 0.230854 0.105287
0.800031 0.234653 0.109087
0.820645 0.23856 0.112993
0.840909 0.242588 0.117021
0.86099 0.246662 0.121096
0.88127 0.250675 0.125109
0.901274 0.25478 0.129213
0 0.256397 0
0.020737 0.25713 0
0.0489357 0.257877 0
0.0772412 0.258671 0
0.105867 0.259434 0
0.135073 0.260105 0
0.165087 0.260639 0
0.196078 0.260975 0
0.228061 0.261112 0
0.261036 0.261036 0
0.294881 0.260807 0
0.329305 0.260487 0
0.373053 0.253574 0.0239261
0.42182 0.242725 0.0686198
0.461143 0.238209 0.0889296
0.493248 0.238727 0.0894636
0.524712 0.23946 0.0902113
0.555398 0.240452 0.0911879
0.585199 0.241733 0.0924697
0.614206 0.243244 0.0939956
0.642069 0.245106 0.0958419
0.668864 0.247288 0.098024
0.694606 0.249775 0.100511
0.719234 0.252583 0.103319
0.742763 0.255695 0.106447
0.765332 0.259098 0.109834
0.787167 0.262684 0.11342
0.808194 0.266514 0.11725
0.828809 0.270436 0.121172
0.849088 0.274449 0.1252
0.869169 0.278523 0.129259
0.889418 0.282521 0.133272
0.909407 0.286595 0.137331
0 0.288273 0
0.0187381 0.289189 0
0.0471199 0.29012 0
0.0755932 0.291081 0
0.104417 0.292027 0
0.133806 0.292897 0
0.163989 0.293599 0
0.195178 0.294118 0
0.227329 0.294438 0
0.260487 0.294545 0
0.294484 0.294484 0
0.329076 0.294316 0
0.364004 0.294118 0
0.404623 0.290074 0.0118105
0.454368 0.279301 0.0561532
0.498222 0.271748 0.0903639
0.53164 0.271199 0.0971389
0.562417 0.272282 0.0982223
0.592294 0.27364 0.0995651
0.621378 0.275227 0.101167
0.649302 0.27715 0.103075
0.676143 0.279377 0.105303
0.701915 0.28191 0.107836
0.726574 0.284733 0.110674
0.750134 0.287877 0.113817
0.772717 0.291279 0.11722
0.794537 0.294881 0.120806
0.815564 0.29868 0.12462
0.836164 0.302586 0.128527
0.856397 0.306584 0.132509
0.876448 0.310613 0.136538
0.896651 0.314565 0.14049
0.916564 0.318563 0.144503
0 0.320958 0
0.016846 0.322057 0
0.0454108 0.323156 0
0.0740673 0.324315 0
0.103075 0.325444 0
0.132631 0.326482 0
0.163012 0.327367 0
0.194339 0.328038 0
0.226658 0.328511 0
0.259953 0.328756 0
0.294072 0.328832 0
0.328771 0.328771 0
0.363821 0.328679 0
0.398917 0.328588 0
0.436545 0.326802 0.00318914
0.485328 0.317205 0.0427253
0.532006 0.308019 0.0841382
0.569009 0.304631 0.104601
0.599008 0.305974 0.106279
0.628138 0.307607 0.107912
0.656077 0.309545 0.109865
0.682948 0.311788 0.112108
0.708721 0.314321 0.114641
0.733379 0.317159 0.117464
0.756924 0.320287 0.120592
0.779477 0.323659 0.123964
0.801266 0.327214 0.127535
0.822232 0.330983 0.131289
0.842786 0.334829 0.135149
0.862959 0.338766 0.139071
0.882979 0.342763 0.143069
0.903181 0.346716 0.147021
0.92314 0.350759 0.15108
0 0.35436 0
0.0153048 0.355642 0
0.0440375 0.356924 0
0.0728618 0.358251 0
0.102022 0.359533 0
0.131746 0.360723 0
0.162249 0.36173 0
0.193698 0.362539 0
0.226139 0.363119 0
0.259525 0.36347 0
0.293751 0.363638 0
0.328527 0.363668 0
0.363638 0.363638 0
0.39881 0.363622 0
0.433799 0.363653 0
0.469551 0.363226 0
0.51606 0.355474 0.029984
0.563684 0.345785 0.0738079
0.603586 0.340032 0.105806
0.634562 0.340169 0.114336
0.662501 0.342107 0.116274
0.689342 0.344335 0.118502
0.715084 0.346838 0.121004
0.739696 0.34963 0.123796
0.763195 0.352712 0.126864
0.785687 0.356023 0.13019
0.807431 0.359533 0.1337
0.828382 0.363287 0.137438
0.848951 0.367147 0.141314
0.869184 0.37113 0.145296
0.889235 0.375174 0.149325
0.909483 0.379171 0.153323
0.929488 0.383246 0.157412
0 0.388357 0
0.0142672 0.389807 0
0.0431373 0.391226 0
0.0720989 0.392676 0
0.101381 0.394095 0
0.131212 0.395392 0
0.161822 0.396506 0
0.193362 0.397391 0
0.225879 0.398062 0
0.259327 0.398474 0
0.293614 0.398703 0
0.32845 0.398779 0
0.363607 0.398795 0
0.398795 0.398795 0
0.433799 0.398856 0
0.468818 0.398917 0
0.504005 0.398917 0
0.547158 0.393454 0.0188754
0.594217 0.3841 0.061677
0.635676 0.376928 0.100694
0.668467 0.374807 0.121584
0.69543 0.376806 0.12459
0.721111 0.379263 0.127031
0.745693 0.38201 0.129778
0.769177 0.385077 0.132845
0.791699 0.388434 0.136202
0.813489 0.391989 0.139757
0.834485 0.395773 0.143557
0.8551 0.39968 0.147463
0.875364 0.403693 0.151476
0.895445 0.407767 0.155535
0.915709 0.41178 0.159564
0.935729 0.415885 0.163653
0 0.422782 0
0.0138399 0.424323 0
0.0428321 0.425864 0
0.0718853 0.427405 0
0.101259 0.428901 0
0.131151 0.430274 0
0.161822 0.431464 0
0.193439 0.43241 0
0.225986 0.433112 0
0.25948 0.43357 0
0.293797 0.433814 0
0.328649 0.433921 0
0.36379 0.433936 0
0.398993 0.433936 0
0.433982 0.433982 0
0.468971 0.434012 0
0.504112 0.433982 0
0.539254 0.433921 0
0.578866 0.430671 0.00984207
0.624323 0.422217 0.049134
0.665934 0.414496 0.0917678
0.699962 0.410681 0.122637
0.727138 0.411673 0.133059
0.751766 0.414481 0.135851
0.775296 0.417594 0.138964
0.797848 0.420981 0.142351
0.819669 0.424567 0.145937
0.840696 0.428382 0.149752
0.861326 0.432303 0.153674
0.88159 0.436332 0.157702
0.901686 0.440406 0.161776
0.92195 0.444419 0.165805
0.941955 0.448508 0.169894
0 0.457542 0
0.0137331 0.459174 0
0.0427863 0.460792 0
0.0719158 0.462394 0
0.101335 0.463935 0
0.131273 0.465354 0
0.161975 0.46656 0
0.193606 0.467536 0
0.226169 0.468254 0
0.259663 0.468711 0
0.293965 0.468956 0
0.328801 0.469032 0
0.363928 0.469017 0
0.399069 0.468986 0
0.434012 0.468971 0
0.46894 0.46894 0
0.504036 0.468864 0
0.539162 0.468788 0
0.574197 0.468772 0
0.61117 0.467262 0.0030518
0.654353 0.460288 0.0372931
0.695308 0.452766 0.0809644
0.729778 0.44802 0.118608
0.757534 0.44741 0.140261
0.781247 0.450309 0.14493
0.80383 0.453696 0.148333
0.825666 0.457298 0.151934
0.846693 0.461128 0.155749
0.867323 0.465049 0.15967
0.887572 0.469062 0.163684
0.907652 0.473121 0.167758
0.927901 0.477119 0.171756
0.94789 0.481193 0.175814
0 0.492607 0
0.0136721 0.494285 0
0.042771 0.495933 0
0.0719158 0.497566 0
0.10135 0.499138 0
0.131304 0.500557 0
0.162005 0.501762 0
0.193622 0.502724 0
0.226154 0.503426 0
0.259617 0.503853 0
0.293873 0.504036 0
0.328664 0.504067 0
0.363714 0.50399 0
0.39884 0.503914 0
0.433768 0.503914 0
0.468742 0.503914 0
0.503883 0.503883 0
0.539055 0.503853 0
0.574121 0.503868 0
0.608927 0.503975 0
0.644038 0.503655 0
0.68455 0.498375 0.0267948
0.724208 0.491447 0.0694285
0.758389 0.48629 0.111223
0.786236 0.48455 0.14168
0.809552 0.486549 0.154055
0.831388 0.490135 0.157641
0.852399 0.493935 0.161456
0.872999 0.497841 0.165362
0.893233 0.501823 0.169345
0.913283 0.505852 0.173373
0.933486 0.509819 0.177325
0.953414 0.513832 0.181353
0 0.527794 0
0.0136873 0.529503 0
0.042771 0.531151 0
0.0719158 0.532784 0
0.101335 0.534325 0
0.131258 0.535714 0
0.161929 0.536889 0
0.1935 0.537804 0
0.225971 0.538445 0
0.259388 0.538811 0
0.293614 0.538979 0
0.328405 0.539025 0
0.363516 0.538994 0
0.398688 0.538964 0
0.433661 0.538994 0
0.46865 0.53904 0
0.503838 0.53904 0
0.53904 0.53904 0
0.574121 0.539071 0
0.608927 0.539178 0
0.64332 0.539406 0
0.677226 0.539727 0
0.714855 0.536248 0.0179751
0.752789 0.530205 0.057969
0.78616 0.525048 0.101717
0.813687 0.52256 0.138445
0.836759 0.523293 0.160723
0.857755 0.526757 0.166812
0.878309 0.530617 0.170672
0.898497 0.534554 0.174609
0.918486 0.538521 0.178576
0.938643 0.542428 0.182483
0.958511 0.54638 0.186435
0 0.562951 0
0.0137636 0.56463 0
0.0428321 0.566247 0
0.071931 0.567849 0
0.101305 0.569345 0
0.131167 0.570672 0
0.161791 0.571801 0
0.193347 0.572702 0
0.225849 0.573373 0
0.259312 0.573785 0
0.293584 0.573999 0
0.32842 0.574075 0
0.363561 0.574075 0
0.398749 0.574075 0
0.433753 0.574136 0
0.468772 0.574197 0
0.50396 0.574197 0
0.539162 0.574197 0
0.574243 0.574243 0
0.609049 0.57435 0
0.643427 0.574548 0
0.677226 0.574899 0
0.710323 0.575433 0
0.745205 0.573709 0.0110323
0.781216 0.568704 0.0471656
0.813443 0.563806 0.0910811
0.840467 0.560891 0.131868
0.862928 0.560723 0.161822
0.883299 0.563256 0.175647
0.90341 0.567132 0.179522
0.923323 0.571023 0.183413
0.943389 0.574838 0.187243
0.96318 0.578714 0.191104
0 0.59791 0
0.013962 0.599527 0
0.0429694 0.601083 0
0.0720378 0.60264 0
0.101411 0.604135 0
0.131304 0.605509 0
0.161975 0.606699 0
0.193576 0.607645 0
0.226123 0.608331 0
0.259617 0.608789 0
0.293919 0.609033 0
0.328771 0.609125 0
0.363912 0.60914 0
0.399115 0.609155 0
0.434119 0.609201 0
0.469139 0.609262 0
0.504311 0.609262 0
0.539498 0.609247 0
0.574548 0.609262 0
0.609339 0.609339 0
0.643671 0.609506 0
0.67744 0.609812 0
0.710475 0.6103 0
0.742779 0.610971 0
0.775525 0.610544 0.00607309
0.809537 0.606668 0.0373999
0.840528 0.602213 0.0800183
0.866728 0.599115 0.123079
0.888731 0.598245 0.158587
0.908263 0.599771 0.180941
0.927825 0.60325 0.187915
0.947784 0.606958 0.191623
0.967453 0.610727 0.195392
0 0.632547 0
0.0144503 0.634195 0
0.0435035 0.635798 0
0.0726177 0.6374 0
0.102037 0.638941 0
0.13196 0.640345 0
0.162661 0.64155 0
0.194293 0.642527 0
0.226856 0.643244 0
0.260349 0.643702 0
0.294667 0.643946 0
0.329519 0.644053 0
0.36466 0.644053 0
0.399847 0.644053 0
0.434836 0.644099 0
0.46981 0.644114 0
0.504952 0.644083 0
0.540108 0.644038 0
0.575128 0.644007 0
0.609857 0.644038 0
0.644144 0.644144 0
0.677852 0.644404 0
0.710826 0.644816 0
0.743038 0.645411 0
0.774517 0.646174 0
0.805676 0.646601 0.00308232
0.837812 0.643854 0.0289158
0.867506 0.639948 0.0690776
0.892989 0.63682 0.112825
0.914351 0.635447 0.152117
0.93315 0.636164 0.181079
0.951873 0.638697 0.195499
0.971389 0.642298 0.199313
0 0.667124 0
0.01561 0.668803 0
0.0446937 0.670436 0
0.0738384 0.672068 0
0.103273 0.673625 0
0.133211 0.675059 0
0.163928 0.676265 0
0.195544 0.677241 0
0.228107 0.677958 0
0.261601 0.678401 0
0.295903 0.678645 0
0.330724 0.678721 0
0.36585 0.678706 0
0.401007 0.67866 0
0.43595 0.67866 0
0.470893 0.678645 0
0.505974 0.678553 0
0.54107 0.678447 0
0.576028 0.678355 0
0.610681 0.678309 0
0.644907 0.678355 0
0.678523 0.678523 0
0.711406 0.678859 0
0.743542 0.679362 0
0.774914 0.680018 0
0.805554 0.680842 0.000442512
0.835538 0.681712 0.00201419
0.866087 0.680018 0.0218662
0.894636 0.676677 0.0585946
0.919326 0.673625 0.101747
0.940108 0.671916 0.143267
0.958389 0.671901 0.177066
0.975677 0.673655 0.198901
0 0.701534 0
0.0174868 0.703227 0
0.0465858 0.70489 0
0.0757458 0.706523 0
0.10518 0.70808 0
0.135119 0.709499 0
0.16582 0.710704 0
0.197421 0.711666 0
0.229969 0.712352 0
0.263432 0.712779 0
0.297688 0.712978 1.5259e-05
0.332479 0.713008 4.57771e-05
0.367544 0.712947 0
0.402655 0.712856 0
0.437537 0.712795 0
0.472404 0.712718 0
0.507439 0.712566 0
0.542443 0.712367 0
0.577325 0.7122 0
0.611887 0.712062 0
0.646006 0.712001 0
0.67953 0.712077 0
0.712306 0.712306 0
0.74432 0.712688 0
0.77557 0.713237 0.000274662
0.806073 0.713924 0.000961318
0.835874 0.714763 0.00180056
0.865125 0.715679 0.00271611
0.894392 0.714916 0.0162509
0.921965 0.712154 0.0488594
0.945968 0.70927 0.0903487
0.966339 0.707317 0.132753
0.983688 0.706874 0.170062
0 0.735729 0
0.0200656 0.737423 0
0.0491493 0.739071 0
0.078294 0.740703 0
0.107698 0.742245 0
0.137621 0.743633 0
0.168292 0.744808 0.000213626
0.199863 0.745724 0.00112917
0.232349 0.74638 0.00178531
0.265766 0.746746 0.00215152
0.299977 0.746883 0.00230411
0.334707 0.746868 0.00227359
0.369696 0.746731 0.00213626
0.40473 0.746563 0.00198367
0.439536 0.746426 0.00184634
0.474327 0.746258 0.00166323
0.509255 0.746014 0.00141909
0.544182 0.745724 0.00114443
0.578943 0.745449 0.000854505
0.613397 0.745205 0.000610361
0.64741 0.745037 0.000442512
0.680797 0.744976 0.000396735
0.713451 0.745083 0.000488289
0.745327 0.745327 0.000732433
0.77644 0.745724 0.00112917
0.806806 0.746273 0.00169375
0.836454 0.74696 0.00238041
0.865553 0.747753 0.00315862
0.894255 0.748592 0.00399786
0.922713 0.748516 0.0120699
0.949554 0.746319 0.0400092
0.973083 0.743648 0.0789654
0.992691 0.74168 0.121263
0 0.769635 0
0.0232395 0.771313 0
0.0522927 0.772931 0
0.0813916 0.774517 0
0.11078 0.776028 0.000717174
0.140658 0.777371 0.00207523
0.171267 0.7785 0.00318914
0.202777 0.779355 0.0040589
0.235203 0.779934 0.00463874
0.268559 0.78024 0.00494392
0.302678 0.780316 0.00500496
0.337331 0.780209 0.00489815
0.372244 0.77998 0.00468452
0.407172 0.779721 0.00442512
0.441886 0.779492 0.00418097
0.47657 0.779202 0.00390631
0.511391 0.778851 0.00355535
0.546181 0.778454 0.00314336
0.580819 0.778042 0.00273136
0.615152 0.777661 0.00236515
0.649012 0.777356 0.00204471
0.682261 0.777157 0.00184634
0.714763 0.777111 0.00181582
0.746502 0.777218 0.00190738
0.777478 0.777478 0.00218204
0.807706 0.77789 0.00259403
0.837217 0.778439 0.00314336
0.866178 0.77908 0.00378424
0.894743 0.779797 0.00448615
0.923018 0.780514 0.00520333
0.951064 0.780819 0.00929274
0.977447 0.779156 0.032105
1 0.776867 0.0678721
0 0.803189 0
0.0269322 0.804822 0
0.0559548 0.806394 0.00128176
0.085008 0.807935 0.00282292
0.114321 0.809369 0.00425727
0.144121 0.810666 0.00555428
0.17467 0.811704 0.0065919
0.206104 0.812497 0.00738537
0.238453 0.812985 0.00787366
0.271702 0.813199 0.00808728
0.30573 0.813184 0.00807202
0.340276 0.81297 0.0078584
0.375082 0.812634 0.0075227
0.409903 0.812268 0.00715648
0.444495 0.811902 0.00679026
0.479042 0.81149 0.00637827
0.513726 0.811002 0.00588998
0.548379 0.810452 0.00534066
0.582879 0.809903 0.00479133
0.61706 0.809384 0.00427253
0.650797 0.808942 0.00383001
0.683909 0.808606 0.00349432
0.716274 0.808423 0.00331121
0.74786 0.808392 0.00328069
0.778698 0.808515 0.00340276
0.808774 0.808774 0.00367742
0.838148 0.809186 0.00407416
0.866987 0.809689 0.00457771
0.895399 0.810269 0.00515755
0.923537 0.810849 0.00573739
0.951553 0.811414 0.00630198
0.979492 0.811841 0.00782788
1 0.810758 0.0253147
0.00225834 0.836347 0.00225834
0.0310521 0.837919 0.00383001
0.0600137 0.839414 0.00534066
0.0889754 0.840879 0.00680552
0.118212 0.842237 0.00816358
0.147936 0.843442 0.00935378
0.178393 0.844388 0.0103151
0.20972 0.845075 0.0110018
0.241962 0.845472 0.0113985
0.27512 0.845579 0.0115053
0.309026 0.845426 0.0113527
0.34345 0.845106 0.011017
0.378119 0.844633 0.0105592
0.412802 0.844129 0.0100404
0.447242 0.843626 0.00955215
0.481651 0.843076 0.00900282
0.516197 0.842435 0.00836194
0.550713 0.841749 0.00767529
0.585077 0.841062 0.00698863
0.61912 0.840406 0.00633249
0.652705 0.839811 0.00573739
0.685679 0.839338 0.00526436
0.717906 0.839017 0.00494392
0.749355 0.838849 0.00476081
0.780056 0.838834 0.00474556
0.809995 0.838956 0.00488289
0.839231 0.839231 0.00515755
0.867918 0.839597 0.00552377
0.896208 0.840024 0.00595102
0.924208 0.840482 0.00639353
0.952071 0.840909 0.00683604
0.97995 0.841291 0.00721752
1 0.841688 0.00764477
0.00668345 0.869078 0.00668345
0.0353857 0.870558 0.00816358
0.0642557 0.871977 0.00958267
0.0931258 0.87335 0.0109407
0.122271 0.874601 0.0122072
0.151873 0.8757 0.0133059
0.182208 0.876539 0.0141451
0.213428 0.877104 0.0147097
0.245548 0.877379 0.0149844
